src/sym-aep-s.svg

<svg width="32" height="32" viewBox="0 0 32 32" fill="none" xmlns="http://www.w3.org/2000/svg">
<path d="M9.24525 0.0640259L2.78125 6.52803H8.02925C8.73325 3.96803 11.4852 0.544026 12.3172 0.0640259H9.24525Z" fill="black"/>
<path d="M15.4532 6.52803V0.0640259H13.9812C11.242 2.03523 9.68258 5.19469 9.24525 6.52803H15.4532Z" fill="black"/>
<path d="M16.7012 6.52803H22.9732C21.514 3.04643 19.1439 0.768026 18.1412 0.0640259H16.7012V6.52803Z" fill="black"/>
<path d="M24.1892 6.52803H29.2772L22.7492 0.0640259H19.8692C21.9428 1.95843 23.3892 4.60803 24.1892 6.52803Z" fill="black"/>
<path d="M22.8133 32L29.2773 25.536L24.0293 25.536C23.3253 28.096 20.5733 31.52 19.7413 32L22.8133 32Z" fill="black"/>
<path d="M16.6053 25.536L16.6053 32L18.0773 32C20.8165 30.0288 22.376 26.8693 22.8133 25.536L16.6053 25.536Z" fill="black"/>
<path d="M15.3573 25.536L9.08535 25.536C10.5445 29.0176 12.9147 31.296 13.9173 32L15.3573 32L15.3573 25.536Z" fill="black"/>
<path d="M7.86935 25.536L2.78135 25.536L9.30935 32L12.1893 32C10.1157 30.1056 8.66935 27.456 7.86935 25.536Z" fill="black"/>
<path d="M2.47656 22H4.50856L5.16456 19.536H8.39656L9.05256 22H11.0846L7.91656 10.24H5.64456L2.47656 22ZM5.64456 17.76L5.96456 16.576C6.39123 15.008 6.66323 13.7387 6.78056 12.768C6.8979 13.7387 7.1699 15.008 7.59656 16.576L7.91656 17.76H5.64456Z" fill="black"/>
<path d="M12.9913 22H19.5353V20.224H14.9753V16.656H18.4793V14.88H14.9753V12.016H19.5353V10.24H12.9913V22Z" fill="black"/>
<path d="M21.9381 22H23.9221V17.568H25.4581C25.8101 17.568 26.1567 17.5413 26.4981 17.488C26.8501 17.424 27.1861 17.3173 27.5061 17.168C27.8261 17.008 28.1034 16.8 28.3381 16.544C28.5834 16.2773 28.7541 15.9733 28.8501 15.632C28.9567 15.2907 29.0101 14.9493 29.0101 14.608V13.2C29.0101 12.8587 28.9567 12.5173 28.8501 12.176C28.7541 11.8347 28.5834 11.536 28.3381 11.28C28.1034 11.0133 27.8261 10.8053 27.5061 10.656C27.1861 10.496 26.8501 10.3893 26.4981 10.336C26.1567 10.272 25.8101 10.24 25.4581 10.24H21.9381V22ZM23.9221 15.792V12.016H25.4581C25.6501 12.016 25.8367 12.0373 26.0181 12.08C26.1994 12.112 26.3701 12.176 26.5301 12.272C26.7007 12.368 26.8287 12.5013 26.9141 12.672C26.9994 12.8427 27.0421 13.0187 27.0421 13.2V14.608C27.0421 14.7893 26.9994 14.9653 26.9141 15.136C26.8287 15.3067 26.7007 15.44 26.5301 15.536C26.3701 15.632 26.1994 15.7013 26.0181 15.744C25.8367 15.776 25.6501 15.792 25.4581 15.792H23.9221Z" fill="black"/>
</svg>

<svg xmlns="http://www.w3.org/2000/svg" viewBox="0 0 32 32">
	<path
		d="M9.2.1L2.8 6.5H8c.7-2.6 3.5-6 4.3-6.5H9.2zm6.3 6.4V.1H14c-2.7 2-4.3 5.1-4.7 6.5h6.2zm1.2 0H23C21.5 3 19.2.7 18.2 0h-1.4v6.5zm7.5 0h5.1L22.8 0h-2.9c2 2 3.5 4.6 4.3 6.5zM22.8 32l6.5-6.5H24c-.7 2.6-3.5 6-4.3 6.5h3.1zm-6.2-6.5V32h1.5c2.7-2 4.3-5.1 4.7-6.5h-6.2zm-1.2 0H9.1c1.5 3.5 3.8 5.8 4.8 6.5h1.4v-6.5zm-7.5 0H2.8L9.3 32h2.9c-2.1-1.9-3.5-4.5-4.3-6.5zM2.5 22h2l.7-2.5h3.2l.7 2.5h2L7.9 10.2H5.6L2.5 22zm3.1-4.2l.4-1.2c.4-1.6.7-2.8.8-3.8.1 1 .4 2.2.8 3.8l.3 1.2H5.6zM13 22h6.5v-1.8H15v-3.6h3.5v-1.8H15V12h4.6v-1.8H13V22zm8.9 0h2v-4.4h1.5c.4 0 .7 0 1-.1.4-.1.7-.2 1-.3.3-.2.6-.4.8-.6.2-.3.4-.6.5-.9.1-.3.2-.7.2-1v-1.4c0-.3-.1-.7-.2-1-.1-.3-.3-.6-.5-.9-.2-.3-.5-.5-.8-.6-.3-.2-.7-.3-1-.3-.3-.1-.7-.1-1-.1h-3.5V22zm2-6.2V12h1.5c.2 0 .4 0 .6.1.2 0 .4.1.5.2.2.1.3.2.4.4.1.1.1.3.1.5v1.4c0 .2 0 .4-.1.5-.1.2-.2.3-.4.4-.2.1-.3.2-.5.2h-2.1z" />
</svg>
